app/assets/images/payment_icons/dogecoin.svg

<svg xmlns="http://www.w3.org/2000/svg" width="38" height="24" viewBox="0 0 38 24" fill="none" aria-labelledby="pi-dogecoin" role="img"><title id="pi-dogecoin">Dogecoin</title><rect width="38" height="24" fill="white"/><path d="M19 19.6691C23.2355 19.6691 26.669 16.2355 26.669 12.0001C26.669 7.76458 23.2355 4.33105 19 4.33105C14.7645 4.33105 11.331 7.76458 11.331 12.0001C11.331 16.2355 14.7645 19.6691 19 19.6691Z" fill="#CBA747"/><path d="M23.414 11.004C23.119 9.25105 21.714 8.35605 21.003 8.12605C20.292 7.89905 15.59 7.99305 15.59 7.99305C15.484 8.12305 15.549 9.89104 15.549 9.89104L16.62 9.88504L16.641 11.243H15.717C15.703 11.2429 15.6892 11.2456 15.6763 11.2508C15.6634 11.2561 15.6516 11.2639 15.6418 11.2738C15.6319 11.2837 15.6241 11.2954 15.6188 11.3083C15.6135 11.3212 15.6109 11.3351 15.611 11.349V12.689C15.611 12.748 15.658 12.795 15.717 12.795H16.656C16.659 13.518 16.65 14.097 16.621 14.108C16.541 14.14 15.671 14.064 15.585 14.123C15.502 14.179 15.547 15.227 15.547 15.628C15.544 16.029 15.653 16.012 15.653 16.012C20.638 15.885 20.517 16.343 21.922 15.501C23.327 14.66 23.714 12.759 23.415 11.003L23.414 11.004ZM18.106 14.103V12.778L19.707 12.795C19.7355 12.7953 19.7629 12.7843 19.7833 12.7645C19.8037 12.7446 19.8155 12.7175 19.816 12.689V11.349C19.8155 11.3206 19.8037 11.2935 19.7833 11.2736C19.7629 11.2538 19.7355 11.2428 19.707 11.243L18.106 11.246V9.76704C18.106 9.76704 21.772 9.36105 21.772 12.11C21.772 14.752 18.106 14.103 18.106 14.103V14.103Z" fill="white"/></svg>

<svg xmlns="http://www.w3.org/2000/svg" width="38" height="24" fill="none" aria-labelledby="pi-dogecoin" role="img" viewBox="0 0 38 24"><title id="pi-dogecoin">Dogecoin</title><path fill="#fff" d="M0 0h38v24H0z"/><path fill="#CBA747" d="M19 19.67A7.669 7.669 0 1 0 19 4.33a7.669 7.669 0 0 0 0 15.338"/><path fill="#fff" d="M23.414 11.004c-.295-1.753-1.7-2.648-2.411-2.878-.711-.227-5.413-.133-5.413-.133-.106.13-.041 1.898-.041 1.898l1.071-.006.021 1.358h-.924a.1.1 0 0 0-.075.03.1.1 0 0 0-.031.076v1.34c0 .059.047.106.106.106h.939c.003.723-.006 1.302-.035 1.313-.08.032-.95-.044-1.036.015-.083.056-.038 1.104-.038 1.505-.003.401.106.384.106.384 4.985-.127 4.864.331 6.269-.511 1.405-.841 1.792-2.742 1.493-4.498zm-5.308 3.099v-1.325l1.601.017a.11.11 0 0 0 .109-.106v-1.34a.11.11 0 0 0-.109-.106l-1.601.003V9.767s3.666-.406 3.666 2.343c0 2.642-3.666 1.993-3.666 1.993"/></svg>
